localPackages/DesignSystem/Sources/DesignSystem/Resources/Assets.xcassets/IconSet/ic-text-bold.imageset/ic-text-bold.svg

<svg width="24" height="24" viewBox="0 0 24 24" fill="none" xmlns="http://www.w3.org/2000/svg">
<g id="ic-text-bold">
<path id="Icon" fill-rule="evenodd" clip-rule="evenodd" d="M3.00073 2.85342C3.00073 2.10783 3.60515 1.50342 4.35073 1.50342H13.1748C16.236 1.50342 18.7177 3.98509 18.7177 7.04638C18.7177 8.50188 18.1567 9.82634 17.2392 10.8154C19.0449 11.9244 20.2491 13.9176 20.2491 16.192C20.2491 19.6744 17.4261 22.4974 13.9438 22.4974H4.35073C3.60515 22.4974 3.00073 21.893 3.00073 21.1474C3.00073 20.4018 3.60515 19.7974 4.35073 19.7974H5.2976V4.20342H4.35073C3.60515 4.20342 3.00073 3.599 3.00073 2.85342ZM7.9976 4.20342V9.88672H13.2982C14.8111 9.82207 16.0177 8.57514 16.0177 7.04638C16.0177 5.47626 14.7449 4.20342 13.1748 4.20342H7.9976ZM7.9976 12.5894V19.7974H13.9438C15.935 19.7974 17.5491 18.1832 17.5491 16.192C17.5491 14.2009 15.935 12.5867 13.9438 12.5867H13.3472C13.2899 12.5885 13.2325 12.5894 13.1748 12.5894H7.9976Z" fill="#0F0F0F"/>
</g>
</svg>

<svg xmlns="http://www.w3.org/2000/svg" width="24" height="24" viewBox="0 0 24 24">
  <g class="ic-text-bold">
    <path fill-rule="evenodd" d="M3 2.854c0-.746.604-1.35 1.35-1.35h8.824a5.543 5.543 0 0 1 4.064 9.312 6.305 6.305 0 0 1-3.295 11.682H4.35a1.35 1.35 0 0 1 0-2.7h.947V4.204H4.35A1.35 1.35 0 0 1 3 2.854Zm4.997 1.35v5.683h5.3a2.843 2.843 0 0 0-.123-5.683H7.997Zm0 8.386v7.208h5.946a3.605 3.605 0 0 0 0-7.21h-.596a5.494 5.494 0 0 1-.173.002H7.997Z" class="Icon"/>
  </g>
</svg>
